X:387
M:6/8
L:1/8
K:D
g|fef d2e|fga B2A|Bcd AFA|BGE E2g|fef d2e|fga B2A|Bcd Afd|

